Adwaita++/apps/16/gcstar.svg

<svg height="16" width="16" xmlns="http://www.w3.org/2000/svg">
  <g fill="#444">
    <path d="m5.910156 6.3624783c-.097259.00879-.1933206.02894-.2890625.060547-.765936.2528586-1.1564312 1.1649232-.8691406 2.0351561.2872906.8702338 1.1442207 1.3719994 1.9101563 1.1191407.7659347-.2528581 1.1544787-1.1649238.8671874-2.0351563-.2513785-.7614544-.938328-1.2411888-1.6191406-1.1796875zm4.179687 0c-.6808121-.0615013-1.3677608.4182331-1.6191401 1.1796875-.2872912.8702325.1012513 1.7822982.8671875 2.0351563.7659346.2528587 1.6228646-.2489069 1.9101556-1.1191407.28729-.870233-.103205-1.7822975-.86914-2.0351562-.09574-.031607-.191804-.051761-.289063-.060547z"/>
    <path d="m8-.01367188c-4.4136131 0-8.01367188 3.60005878-8.01367188 8.01367188 0 4.413613 3.60005878 8.013672 8.01367188 8.013672 4.413613 0 8.013672-3.600059 8.013672-8.013672 0-4.4136131-3.600059-8.01367188-8.013672-8.01367188zm0 1.99999998c3.332733 0 6.013672 2.6809391 6.013672 6.0136719 0 3.332733-2.680939 6.013672-6.013672 6.013672-3.3327328 0-6.0136719-2.680939-6.0136719-6.013672 0-3.3327328 2.6809391-6.0136719 6.0136719-6.0136719z"/>
  </g>
</svg>

<svg xmlns="http://www.w3.org/2000/svg" width="16" height="16" version="1.1">
 <g>
  <path fill="#444" d="m 5.910156,6.3624783 c -0.097259,0.00879 -0.1933206,0.02894 -0.2890625,0.060547 C 4.8551575,6.6758839 4.4646623,7.5879485 4.7519529,8.4581814 5.0392435,9.3284152 5.8961736,9.8301808 6.6621092,9.5773221 7.4280439,9.324464 7.8165879,8.4123983 7.5292966,7.5421658 7.2779181,6.7807114 6.5909686,6.300977 5.910156,6.3624783 Z m 4.179687,0 C 9.4090309,6.300977 8.7220822,6.7807114 8.4707029,7.5421658 8.1834117,8.4123983 8.5719542,9.324464 9.3378904,9.5773221 10.103825,9.8301808 10.960755,9.3284152 11.248046,8.4581814 c 0.28729,-0.870233 -0.103205,-1.7822975 -0.86914,-2.0351562 -0.09574,-0.031607 -0.191804,-0.051761 -0.289063,-0.060547 z"/>
  <path id="ellipse4" fill="#444" d="m 8,-0.01367188 c -4.4136131,0 -8.01367188,3.60005878 -8.01367188,8.01367188 0,4.413613 3.60005878,8.013672 8.01367188,8.013672 4.413613,0 8.013672,-3.600059 8.013672,-8.013672 0,-4.4136131 -3.600059,-8.01367188 -8.013672,-8.01367188 z M 8,1.9863281 c 3.332733,0 6.013672,2.6809391 6.013672,6.0136719 0,3.332733 -2.680939,6.013672 -6.013672,6.013672 C 4.6672672,14.013672 1.9863281,11.332733 1.9863281,8 1.9863281,4.6672672 4.6672672,1.9863281 8,1.9863281 Z"/>
 </g>
</svg>
